X:1
T:Title
%%score { ( 1 3 ) | 2 }
L:1/8
M:4/4
K:Ab
V:1 treble nm="Grand Piano"
V:3 treble 
V:2 bass 
V:1
 z4 z2[Q:1/4=106] [CE]>[DF] | [CE]2 [Ec]2 [Ec]2 [CE]>[DF] | z2 d2 z4 | z2 d2 z4 | %4
 A2 e2 e2 [CE]>[DF] | [CE]2 [Ec]2 [Ec]2 [EB]>[EA] |[M:9/8] [DF]2 [Fd]- [Fd] [Fd]2- [Fd] [=Ed]2 | %7
[M:4/4] c2 cA B B3 | [CEA]6 z2 | [Ee]2 [Ee][Ee] [Ee]2 [Ec][DB] | [CA]2 [DA]2 [CA]4 | %11
 [Ee]2 [Ee][Ee] [Ee]2 cB | A2 [=Dc]2 [EB]4 | [Ec]2 [Ec][Ec] [=Ec]2 [EB][EB] | %14
[M:19/16] A-<AF-<F[FA]/-[FA]/-[FA]/-[FA]/-[FA]/-[FA]-<[FA]F |[M:4/4] E2 AA A2 GA | %16
[M:7/8] c B3 [CA]3 |] %17
V:2
 z4 z2 [A,,A,]>[A,,A,] | [A,,A,]2 [A,,A,]2 [A,,A,]2 [A,,A,]>[A,,A,] | %2
 [B,,G,]2 .[E,B,E]2 [E,B,]2 [E,G,D]>[E,G,D] | [E,G,D]2 .[E,G,E]2 [E,B,]2 [E,E]>[E,D] | %4
 [A,C]2 [G,B,E]2 [A,CE]2 [A,,A,]>[A,,A,] | [A,,A,]2 [A,,A,]2 [A,,A,]2 [B,,G,]>[C,A,] | %6
[M:9/8] [D,A,]2 [D,A,]- [D,A,] [D,A,]2- [D,A,] [D,A,]2 | %7
[M:4/4] [E,A,E]2 [E,A,E][E,CE] [E,DE] [E,DE]3 | A,,6 z2 | %9
 [A,C]2 [G,B,][G,B,] [A,C]2 [A,,A,][E,G,] | [A,,A,]2 [A,,F,]2 [A,,E,]4 | %11
 [C,A,]2 [B,,G,][B,,G,] [C,A,]2 [E,A,E][E,G,D] | [F,A,C]2 [B,,A,]2 [E,G,]4 | %13
 [A,,A,]2 [A,,A,][A,,A,] [C,G,]2 [C,C][C,C] | %14
[M:19/16] [F,CF]-<[F,CF][F,A,]-<[F,A,][D,D]/-[D,D]/-[D,D]/-[D,D]/-[D,D]/-[D,D]-<[D,D][D,A,D] | %15
[M:4/4] [E,A,C]2 [E,A,C][E,A,C] [E,A,C]2 [E,B,D][E,A,C] |[M:7/8] [E,A,E] [E,G,D]3 [A,,E,A,]3 |] %17
V:3
 x8 | x8 | E2 z F [Gd]2 E>F | E2 z F [Gd]2 [Ac]>[GB] | x8 | x8 |[M:9/8] x9 |[M:4/4] x8 | x8 | x8 | %10
 x8 | x8 | x8 | x8 |[M:19/16] x19/2 |[M:4/4] x8 |[M:7/8] x7 |] %17

